X:36
T:Body and Soul
C:Green - Heyman - Sour
N:TablEdited by Spencer Sorenson
L:1/8
Q:1/4=120
M:4/4
K:F
|: "Dm"zD ED E2 D2 | "Dm7"A2 "G7"A6 | "C"zG AG "G7+5"A2 G2 | "C/E"d2 c2 "Ebdim"=B2 A2 | 
"Dm7"z2 c2 AD zA, | "G7"E4 "E7"D4 | "Am"zC DE "Dm7"G2 (3"G7"GA_E |1 "C"C4 "(Eb9)"z4 :|2 "C"C4 z4 |] 
"Db"z_D _EF "Ab7"_AA zA | "Db"_dd zF "Gb"_AA z_G | "Db"FF z_D "Ab7"_E2 C_A, | 
"Db"z4 z4 | "C#m7"z_D _E=E "F#7"_AA z_G | "BM7"_ee zB _dd z_A | "C#m7"=BB z_A "F#7"_BB z_G | 
"B7"_E2 "Bb7"D2 "A7"_D2 A2 | "Dm"zD ED E2 D2 | "Dm7"A2 "G7"A6 | "C"zG DG "G7+5"D2 G2 | 
"C/E"d2 c2 "Ebdim"=B2 A2 | "Dm7"z2 c2 AD zA, | "G7"E4 "E7"D4 | "Am"zC DE "Dm7"G2 (3"G7"GA_E | 
"C"C4 "(Eb9)"z4 | 


